X:231
T:Nine Men's Morris
R:polka 32 march
S:Great Western Morris
L:1/8
M:4/4
Q:1/4=140
K:D
D2|:E2B2 BAGF|E2E2 DEFD|E2B2 BAGA|B4 B2D2|
%Dd2|E2b2 bagf|E2E2 DEFD|E2b2 baga|b4 b2d2|E2b2 bagf|
E2B2 BAGF|E2E2 DEFD|E2B2 BAGF|E4 E2A2:|]
%E2E2 DEFD|E2b2 bAGF|E4 E2A2:|2
%I can't work out what the next line is trying to do. I was expecting something like.
B2e2 e3f|e2d2 B2A2|B2e2 e3f|e3d B2c2|
e2z2 d4|B2z2 A3G|E2B2 BAGF|1E4 E4:|2E4 E2|]
> A2d2b4|e2z2d4|b2z3A2d|E2b2 bagf|E4 E2D2:|2

